app/assets/images/brand/logo-lendopolis.svg

<?xml version="1.0" encoding="UTF-8"?>
<svg width="161px" height="30px" viewBox="0 0 161 30" version="1.1" xmlns="http://www.w3.org/2000/svg" xmlns:xlink="http://www.w3.org/1999/xlink">
  <title>LENDOPOLIS</title>
  <g id="Artboard" stroke="none" stroke-width="1" fill="none" fill-rule="evenodd">
    <path d="M96.1183099,9.21971831 C94.6647887,9.21971831 93.2535211,9.75211268 92.1380282,10.7070423 C90.7943662,11.8647887 90.0169014,13.5380282 90.0169014,15.2873239 C90.0169014,18.6169014 92.7549296,21.3295775 96.1183099,21.3295775 C97.715493,21.3295775 99.228169,20.7211268 100.369014,19.6140845 C101.560563,18.4647887 102.211268,16.9352113 102.211268,15.2873239 C102.219718,11.9408451 99.4816901,9.21971831 96.1183099,9.21971831 Z M98.315493,18.8112676 C97.656338,19.2338028 96.8957746,19.4619718 96.1183099,19.4619718 C93.8366197,19.4619718 91.9774648,17.5859155 91.9774648,15.2788732 C91.9774648,14.3577465 92.2732394,13.4788732 92.8309859,12.743662 C93.6169014,11.6957746 94.8169014,11.0957746 96.1183099,11.0957746 C98.4,11.0957746 100.259155,12.971831 100.259155,15.2788732 C100.259155,16.7070423 99.5323944,18.0338028 98.315493,18.8112676 Z M112.630986,10.056338 C111.760563,9.45633803 110.746479,9.4056338 109.690141,9.4056338 L107.51831,9.41408451 L107.51831,21.143662 L109.478873,21.143662 L109.478873,16.3267606 L110.002817,16.3267606 C110.864789,16.3267606 111.971831,16.2338028 112.850704,15.515493 C112.91831,15.456338 112.969014,15.4056338 113.028169,15.3549296 L113.053521,15.3295775 C113.678873,14.7042254 114.042254,13.8084507 114.042254,12.8704225 C114.033803,11.7211268 113.509859,10.6647887 112.630986,10.056338 Z M111.033803,14.315493 C110.729577,14.4084507 110.357746,14.4507042 109.926761,14.4507042 L109.478873,14.4507042 L109.478873,11.2816901 L109.56338,11.2816901 C111.228169,11.2816901 112.064789,11.5183099 112.064789,12.8366197 C112.073239,13.6309859 111.743662,14.1042254 111.033803,14.315493 Z M124.774648,9.21971831 C123.287324,9.21971831 121.850704,9.76901408 120.726761,10.7661972 C119.425352,11.9239437 118.673239,13.571831 118.673239,15.2873239 C118.673239,18.6169014 121.411268,21.3295775 124.774648,21.3295775 C126.329577,21.3295775 127.816901,20.7464789 128.957746,19.6816901 C130.2,18.5239437 130.876056,16.9690141 130.876056,15.2873239 C130.884507,11.9408451 128.146479,9.21971831 124.774648,9.21971831 Z M126.971831,18.8112676 C126.312676,19.2338028 125.552113,19.4619718 124.774648,19.4619718 C122.492958,19.4619718 120.633803,17.5859155 120.633803,15.2788732 C120.633803,14.3577465 120.929577,13.4788732 121.487324,12.743662 C122.273239,11.6957746 123.473239,11.0957746 124.774648,11.0957746 C127.056338,11.0957746 128.915493,12.971831 128.915493,15.2788732 C128.915493,16.7070423 128.188732,18.0338028 126.971831,18.8112676 Z M138.143662,19.2676056 L138.143662,9.4056338 L136.183099,9.4056338 L136.183099,21.143662 L141.177465,21.143662 L141.177465,19.2676056 L138.143662,19.2676056 Z M146.053521,9.4056338 L146.053521,21.143662 L148.014085,21.143662 L148.014085,9.4056338 L146.053521,9.4056338 Z M158.121127,14.1380282 L157.394366,13.8169014 C156.540845,13.428169 155.890141,13.0901408 155.890141,12.4309859 C155.890141,12.3042254 155.915493,12.1690141 155.966197,12.0169014 C156.152113,11.4676056 156.709859,11.0873239 157.343662,11.0873239 C158.061972,11.0873239 158.501408,11.3746479 158.923944,12.1014085 L159.11831,12.4394366 L160.707042,11.4169014 L160.369014,10.8338028 C159.692958,9.8028169 158.602817,9.21971831 157.377465,9.21971831 C156.430986,9.21971831 155.526761,9.56619718 154.884507,10.1661972 C154.259155,10.7492958 153.929577,11.5183099 153.929577,12.3887324 C153.929577,14.2056338 155.214085,14.9408451 156.540845,15.5408451 L157.216901,15.8366197 L157.267606,15.8619718 C158.357746,16.3605634 159.025352,16.715493 159.025352,17.6873239 C159.025352,18.3971831 158.569014,19.0394366 157.867606,19.3183099 C157.630986,19.4112676 157.377465,19.4619718 157.132394,19.4619718 C156.287324,19.4619718 155.585915,18.8873239 155.349296,17.9915493 C155.340845,17.9492958 155.239437,17.315493 155.239437,17.315493 L153.329577,17.8478873 L153.388732,18.2450704 C153.794366,20.1211268 155.273239,21.3295775 157.166197,21.3295775 C158.146479,21.3295775 159.076056,20.9746479 159.777465,20.3239437 C160.55493,19.6056338 160.985915,18.6253521 160.985915,17.5605634 C160.985915,15.5577465 159.507042,14.7464789 158.121127,14.1380282 Z M39.7183099,19.2676056 L39.7183099,9.4056338 L37.7492958,9.4056338 L37.7492958,21.143662 L42.7521127,21.143662 L42.7521127,19.2676056 L39.7183099,19.2676056 Z M47.6028169,9.4056338 L47.6028169,21.143662 L54.0422535,21.143662 L54.0422535,19.2676056 L49.5633803,19.2676056 L49.5633803,15.684507 L53.9070423,15.684507 L53.9070423,13.8169014 L49.5633803,13.8169014 L49.5633803,11.2816901 L54.0422535,11.2816901 L54.0422535,9.4056338 L47.6028169,9.4056338 Z M68.4169014,9.42253521 L68.4169014,16.9774648 L59.8394366,9.21971831 L59.8394366,21.1774648 L61.8,21.1774648 L61.8,13.5042254 L70.3774648,21.3380282 L70.3774648,9.42253521 L68.4169014,9.42253521 Z M83.2732394,10.8253521 C81.8957746,9.65070423 80.4676056,9.4056338 78.743662,9.4056338 L76.3014085,9.4056338 L76.3014085,21.143662 L78.7183099,21.143662 C80.5267606,21.143662 81.9211268,20.8985915 83.3070423,19.6647887 C83.4253521,19.5633803 83.5267606,19.4535211 83.628169,19.3521127 C84.6760563,18.2704225 85.2253521,16.8676056 85.2253521,15.2957746 C85.2253521,13.4704225 84.5492958,11.9239437 83.2732394,10.8253521 Z M82.0056338,18.228169 C81.828169,18.3971831 81.2957746,18.7521127 81.2957746,18.7521127 L81.2873239,18.7605634 C80.6366197,19.1239437 79.9183099,19.2676056 78.7859155,19.2676056 L78.2619718,19.2676056 L78.2619718,11.2816901 L78.7859155,11.2816901 C80.028169,11.2816901 81.0422535,11.4507042 81.9549296,12.2535211 C82.7830986,12.9802817 83.256338,14.0788732 83.256338,15.2704225 C83.2647887,16.428169 82.8169014,17.4760563 82.0056338,18.228169 Z" id="Shape" fill="#000000" fill-rule="nonzero"></path>
    <circle id="Oval" fill="#FFFFFF" cx="14.9661972" cy="14.9070423" r="14.6704225"></circle>
    <path d="M4.72394366,8.65352113 L3.98873239,7.43661972 C3.98873239,7.43661972 2.16338028,9.97183099 1.73239437,13.2676056 C1.3943662,15.8873239 1.8,18.084507 2.47605634,19.7577465 L6.03380282,19.7577465 C6.23661972,19.7577465 6.43098592,19.8084507 6.6,19.8929577 L6.6,16.4788732 C6.6,15.7859155 7.16619718,15.2197183 7.8084507,15.1521127 L8.72112676,15.1521127 L4.72394366,8.65352113 Z M21.1098592,15.143662 L22.0225352,15.143662 C22.6647887,15.2112676 23.2309859,15.7774648 23.2309859,16.4704225 L23.2309859,19.884507 C23.4,19.8 23.5943662,19.7492958 23.7971831,19.7492958 L27.3549296,19.7492958 C28.0309859,18.0760563 28.4366197,15.8788732 28.0985915,13.2591549 C27.6760563,9.97183099 25.8422535,7.42816901 25.8422535,7.42816901 L25.1070423,8.64507042 L21.1098592,15.143662 Z M19.0140845,3.23661972 L19.1408451,2.36619718 C19.1408451,2.36619718 17.0450704,1.70704225 14.856338,1.70704225 C12.9380282,1.70704225 10.6901408,2.45915493 10.6901408,2.45915493 L10.9014085,3.76901408 L10.9605634,4.24225352 L11.8394366,11.4338028 L12.4309859,11.4338028 C12.6169014,11.4338028 12.8028169,11.4760563 12.9633803,11.5521127 L12.9633803,9.43098592 C12.9633803,8.73802817 13.571831,8.11267606 14.2647887,8.11267606 L15.6338028,8.11267606 C16.3267606,8.11267606 16.8507042,8.73802817 16.8507042,9.43098592 L16.8507042,11.543662 C17.0112676,11.4760563 17.1802817,11.4338028 17.3661972,11.4338028 L18.0084507,11.4338028 L18.9042254,4.14084507 L18.9042254,4.13239437 L19.0140845,3.23661972 Z" id="Shape" fill="#CAF4FE" fill-rule="nonzero"></path>
    <path d="M14.9577465,0.0676056338 C6.70985915,0.0676056338 0,6.77746479 0,15.0253521 C0,17.4760563 0.591549296,19.7830986 1.63943662,21.8197183 C2.67042254,23.8309859 4.14084507,25.571831 5.91549296,26.9323944 C8.42535211,28.8422535 11.5605634,29.9830986 14.9492958,29.9830986 C18.3464789,29.9830986 21.4732394,28.8422535 23.9830986,26.9323944 C25.6901408,25.6309859 27.1098592,23.9830986 28.1323944,22.0816901 C29.2647887,19.9774648 29.9070423,17.5774648 29.9070423,15.0253521 C29.915493,6.77746479 23.2056338,0.0676056338 14.9577465,0.0676056338 Z M27.1521127,20.2394366 L23.7633803,20.2394366 C23.4253521,20.2394366 23.1464789,20.5183099 23.1464789,20.856338 L23.1464789,25.4450704 C22.9690141,25.5887324 22.7830986,25.7239437 22.5887324,25.8591549 L22.5887324,16.3183099 C22.5887324,15.9802817 22.3098592,15.7014085 21.971831,15.7014085 L20.5690141,15.7014085 C20.2309859,15.7014085 19.9521127,15.9802817 19.9521127,16.3183099 L19.9690141,27.2957746 C19.9690141,27.2957746 19.6225352,27.4394366 19.4028169,27.515493 L19.4028169,12.5408451 C19.4028169,12.2028169 19.1239437,11.9239437 18.7859155,11.9239437 L17.3830986,11.9239437 C17.0450704,11.9239437 16.7661972,12.2028169 16.7661972,12.5408451 C16.7661972,12.5408451 16.7661972,28.1408451 16.7746479,28.1577465 C16.5971831,28.1830986 16.4112676,28.2084507 16.2253521,28.2253521 L16.2253521,9.27887324 C16.2253521,8.94084507 15.9464789,8.66197183 15.6084507,8.66197183 L14.2394366,8.66197183 C13.9014085,8.66197183 13.6225352,8.94084507 13.6225352,9.27887324 L13.6225352,28.2253521 C13.4366197,28.2084507 13.2422535,28.1830986 13.056338,28.1577465 L13.0647887,12.5408451 C13.0647887,12.2028169 12.7859155,11.9239437 12.4478873,11.9239437 L11.0704225,11.9239437 C10.7323944,11.9239437 10.4535211,12.2028169 10.4535211,12.5408451 L10.4535211,27.4985915 C10.2253521,27.4140845 9.84507042,27.2619718 9.84507042,27.2619718 L9.85352113,16.3183099 C9.85352113,15.9802817 9.57464789,15.7014085 9.23661972,15.7014085 L7.83380282,15.7014085 C7.49577465,15.7014085 7.21690141,15.9802817 7.21690141,16.3183099 L7.21690141,25.8 C7.01408451,25.656338 6.81126761,25.5042254 6.61690141,25.343662 L6.61690141,20.856338 C6.61690141,20.5183099 6.33802817,20.2394366 6,20.2394366 L2.74647887,20.2394366 C1.90140845,18.1859155 1.67323944,16.8676056 1.67323944,15.0169014 C1.67323944,7.69859155 7.62253521,1.74929577 14.9408451,1.74929577 C22.2591549,1.74929577 28.2084507,7.69859155 28.2084507,15.0169014 C28.2253521,16.8760563 27.8450704,18.6422535 27.1521127,20.2394366 Z" id="Shape" fill="#000000" fill-rule="nonzero"></path>
  </g>
</svg>

<svg width="161" height="30" xmlns="http://www.w3.org/2000/svg"><title>LENDOPOLIS</title><g fill="none" fill-rule="evenodd"><path d="M96.118 9.22a6.132 6.132 0 0 0-3.98 1.487 6.061 6.061 0 0 0-2.121 4.58c0 3.33 2.738 6.043 6.101 6.043 1.597 0 3.11-.609 4.251-1.716a5.95 5.95 0 0 0 1.842-4.327c.009-3.346-2.73-6.067-6.093-6.067zm2.197 9.591c-.659.423-1.42.651-2.197.651-2.281 0-4.14-1.876-4.14-4.183 0-.921.295-1.8.853-2.535a4.079 4.079 0 0 1 3.287-1.648c2.282 0 4.141 1.876 4.141 4.183a4.186 4.186 0 0 1-1.944 3.532zm14.316-8.755c-.87-.6-1.885-.65-2.94-.65l-2.173.008v11.73h1.96v-4.817h.525c.862 0 1.969-.093 2.848-.812.067-.059.118-.11.177-.16l.026-.025c.625-.626.988-1.522.988-2.46-.008-1.149-.532-2.205-1.411-2.814zm-1.597 4.26c-.304.092-.676.135-1.107.135h-.448v-3.17h.084c1.665 0 2.502.237 2.502 1.556.008.794-.321 1.267-1.031 1.478zm13.74-5.096c-1.487 0-2.923.549-4.047 1.546a6.072 6.072 0 0 0-2.054 4.521c0 3.33 2.738 6.043 6.102 6.043a6.112 6.112 0 0 0 4.183-1.648 5.937 5.937 0 0 0 1.918-4.395c.009-3.346-2.73-6.067-6.101-6.067zm2.198 9.591c-.66.423-1.42.651-2.197.651-2.282 0-4.141-1.876-4.141-4.183 0-.921.296-1.8.853-2.535a4.079 4.079 0 0 1 3.288-1.648c2.281 0 4.14 1.876 4.14 4.183a4.186 4.186 0 0 1-1.943 3.532zm11.172.457V9.406h-1.96v11.738h4.993v-1.876h-3.033zm7.91-9.862v11.738h1.96V9.406h-1.96zm12.067 4.732l-.727-.321c-.853-.389-1.504-.727-1.504-1.386 0-.127.025-.262.076-.414.186-.55.744-.93 1.378-.93.718 0 1.157.288 1.58 1.014l.194.338 1.589-1.022-.338-.583a3.516 3.516 0 0 0-2.992-1.614c-.946 0-1.85.346-2.492.946a2.964 2.964 0 0 0-.955 2.223c0 1.817 1.284 2.552 2.61 3.152l.677.296.05.025c1.09.499 1.758.853 1.758 1.825 0 .71-.456 1.352-1.157 1.631-.237.093-.49.144-.736.144-.845 0-1.546-.575-1.783-1.47-.008-.043-.11-.677-.11-.677l-1.91.533.06.397c.405 1.876 1.884 3.085 3.777 3.085.98 0 1.91-.355 2.611-1.006a3.722 3.722 0 0 0 1.209-2.763c0-2.003-1.479-2.815-2.865-3.423zm-118.403 5.13V9.406H37.75v11.738h5.003v-1.876h-3.034zm7.885-9.862v11.738h6.44v-1.876h-4.48v-3.583h4.344v-1.868h-4.344v-2.535h4.48V9.406h-6.44zm20.814.017v7.554L59.839 9.22v11.957H61.8v-7.673l8.577 7.834V9.423h-1.96zm14.856 1.402c-1.377-1.174-2.805-1.42-4.53-1.42h-2.442v11.739h2.417c1.809 0 3.203-.245 4.589-1.48.118-.1.22-.21.321-.312 1.048-1.082 1.597-2.484 1.597-4.056 0-1.826-.676-3.372-1.952-4.47zm-1.267 7.403c-.178.17-.71.524-.71.524l-.009.009c-.65.363-1.369.507-2.501.507h-.524v-7.986h.524c1.242 0 2.256.169 3.169.972.828.726 1.301 1.825 1.301 3.016.009 1.158-.44 2.206-1.25 2.958z" fill="#000" fill-rule="nonzero"/><circle fill="#FFF" cx="14.966" cy="14.907" r="14.67"/><path d="M4.724 8.654l-.735-1.217s-1.826 2.535-2.257 5.83c-.338 2.62.068 4.818.744 6.49h3.558c.203 0 .397.051.566.136v-3.414c0-.693.566-1.26 1.208-1.327h.913L4.724 8.654zm16.386 6.49h.913c.642.067 1.208.633 1.208 1.326v3.415a1.27 1.27 0 0 1 .566-.136h3.558c.676-1.673 1.082-3.87.744-6.49-.423-3.287-2.257-5.83-2.257-5.83l-.735 1.216-3.997 6.499zM19.014 3.237l.127-.87s-2.096-.66-4.285-.66c-1.918 0-4.166.752-4.166.752l.211 1.31.06.473.878 7.192h.592c.186 0 .372.042.532.118V9.431c0-.693.609-1.318 1.302-1.318h1.369c.693 0 1.217.625 1.217 1.318v2.113c.16-.068.33-.11.515-.11h.642l.896-7.293v-.009l.11-.895z" fill="#CAF4FE" fill-rule="nonzero"/><path d="M14.958.068C6.71.068 0 6.778 0 15.025a14.8 14.8 0 0 0 1.64 6.795 15.174 15.174 0 0 0 4.275 5.112 14.883 14.883 0 0 0 9.034 3.051c3.397 0 6.524-1.14 9.034-3.05a15.093 15.093 0 0 0 4.15-4.851 14.838 14.838 0 0 0 1.774-7.057C29.915 6.777 23.206.068 14.957.068zm12.194 20.171h-3.389a.62.62 0 0 0-.617.617v4.59a9.543 9.543 0 0 1-.557.413v-9.54a.62.62 0 0 0-.617-.618h-1.403a.62.62 0 0 0-.617.617l.017 10.978s-.346.143-.566.22V12.54a.62.62 0 0 0-.617-.617h-1.403a.62.62 0 0 0-.617.617s0 15.6.009 15.617c-.178.025-.364.05-.55.067V9.28a.62.62 0 0 0-.617-.617H14.24a.62.62 0 0 0-.616.617v18.946c-.186-.017-.38-.042-.567-.067l.009-15.617a.62.62 0 0 0-.617-.617H11.07a.62.62 0 0 0-.616.617v14.958c-.229-.085-.609-.237-.609-.237l.009-10.944a.62.62 0 0 0-.617-.617H7.834a.62.62 0 0 0-.617.617V25.8a10.204 10.204 0 0 1-.6-.456v-4.488A.62.62 0 0 0 6 20.24H2.746c-.845-2.053-1.073-3.371-1.073-5.222 0-7.318 5.95-13.268 13.268-13.268 7.318 0 13.267 5.95 13.267 13.268a12.794 12.794 0 0 1-1.056 5.222z" fill="#000" fill-rule="nonzero"/></g></svg>
